X:7
T:New Rigged Ship
M:6/8
L:1/8
R:Jig
Z:Steve Mansfield August 2001
K:D
A | dcd d2 f | dcd d2 f | ecA Ace | ecA ABc |dcd d2 f | dcd d2 f | 
ecA ABc | d3 d2 :: f |a2 f a2 f | ded dfa | b2 g b2 g | 
efe efg | a2 f a2 f | def d2 f | ecA ABc | d3 d2 :|

